X: 1
T: Polonäs, sexdregasamlingen del 2 nr 1
B: Sexdregasamlingen del 2 nr 1
S: efter Anders Larsson
O: Sexdrega, Västergötland
R: Slängpolska
Z: 2011-11-16 av Nils L
M: 3/4
L: 1/16
K: D
d2f2 f2>e2 gfed | c2e2 e2>d2 cBcA | d2f2 f2>e2 gfed | cdec d8 ::
D2FG A2A2 A4 | D2GA B2B2 B4 | FGFE D2E2 F2G2 | A2AB A2>G2 F2E2 |
D2FG A2A2 A4 | D2GA B2B2 B4 | A2Bc d2e2 f2ed | cdec d8 :|

